X:60
T: Feeding the Birds
C: M. Rafferty
Z: B.Black
R: reel
M: 4/4
L: 1/8
K: G
F | DGGA B2 ag | efdc AGGF |DGGA B2 ag |edcA G3 F |
DGGA B2 ag | efdc AGGF |DGGA B2 ag |edcA G3 :|
e | fgag fdde | f3 d cABg | fgag fdd^c |dgfa gfga |
b2 af gfde | f3 d cAGF |DGGA B2 ag |fdcA G3 :|
